!!!COM: Haydn, Franz Joseph
!!!OTL: String Quartet in D Major
!!!OPS: Opus 33
!!!ONM: No. 6
!!!OMD: Scherzo: Allegretto
!!!OMV: 3
!!!SCT: H III:42
!!!SCA: Thematisch-bibliographisches Werkevererzeichnis (A. van Hoboken)
!!!YOR: Richault Edition, volume 8
!!!ENC: Frances Bennion
!!!CDT: 1732/3/31/-1809/5/31/
!!!CNT: Oesterreich
!!!YEC: Copyright (c) 1994, 2000 Center for Computer Assisted Research in the Humanities
!!!YEM: Rights to all derivative editions reserved.
!!!YEM: Refer to licensing agreement for further details.
!!!YEN: United States of America
**kern	**kern	**kern	**kern
*k[f#c#]	*k[f#c#]	*k[f#c#]	*k[f#c#]
*D:	*D:	*D:	*D:
*clefF4	*clefC3	*clefF	*clefF
*M3/4	*M3/4	*M3/4	*M3/4
2r	2r	2r	4r
.	.	.	4r
4r	4r	4A	4a
=1	=1	=1	=1
4r	2.r	4c#	4g
4r	.	4d	4f#
4D	.	4d	4f#
=2	=2	=2	=2
4C#	2.r	2d	2f#
4BB	.	.	.
4BB	.	4d	4b
=3	=3	=3	=3
2.E	4r	4c#	4a
.	4r	4B	4g#
.	4e	4B	4g#
=4	=4	=4	=4
2AA	4d	2A	2a
.	4c#	.	.
4r	4B	4r	4g
=5	=5	=5	=5
4r	4A	4r	4f#
4r	4G	4r	4e
4G	4r	4B	4b
=6	=6	=6	=6
4F#	4r	4d#	4a
4E	4r	4e	4g
4E	4b	4g	4ee
=7	=7	=7	=7
2A	4a	4f#	4dd
.	4g	4e	4cc#
4AA	4e	4e	4cc#
=8	=8	=8	=8
4D	4d	4f#	4dd
2r	4r	4r	2r
.	4a	4cc	.
=9	=9	=9	=9
4r	4g	4b	4r
4r	4f#	4a	4r
4d#	4b	4f#	4bb
=10	=10	=10	=10
2e	2b	4f#	4aa
.	.	4g	4gg
4r	4g	4b	4r
=11	=11	=11	=11
4r	4f#	4a	4r
4r	4e	4g	4r
4c#	4a	4e	4aa
=12	=12	=12	=12
2d	2a	4e	4gg
.	.	4f#	4ff#
4F#	4a	4d	4ddd
=13	=13	=13	=13
2G	4g	2.d	4ccc#
.	4G	.	4bb
4A	4A	.	4aa
=14	=14	=14	=14
4B	4B	4d	4aa
4c#	4c#	4e	8gg
.	.	.	8ee
4d	4d	4d	8ff#
.	.	.	8dd
=15	=15	=15	=15
[2.AA	2A	2A	2a
.	4f#	4a	4r
=16	=16	=16	=16
2.AA_	4e	4g	4r
.	4d#	4f#	4r
.	4d#	4f#	4b
=17	=17	=17	=17
2.AA_	4d#	4f#	4a
.	4e	4g	4g
.	4e	4g	4g
=18	=18	=18	=18
2.AA_	4d	4f#	2g
.	4c#	4e	.
.	4c#	4e	4a
=19	=19	=19	=19
4AA]	4c#	4e	4g
4r	4d	4f#	4f#
4D	4F#	4d	4f#
=20	=20	=20	=20
4C#	4E	2d	2f#
4BB	4D	.	.
4BB	4r	4d	4b
=21	=21	=21	=21
2.E	4r	4c#	4a
.	4r	4B	4g#
.	4e	4B	4g#
=22	=22	=22	=22
2.AA	4d	2A	2a
.	4c#	.	.
.	4B	4r	4g
=23	=23	=23	=23
4r	4A	4r	4f#
4r	4G	4r	4e
4G	4r	4B	4b
=24	=24	=24	=24
4F#	4r	4d#	4a
4E	4r	4e	4g
4E	4b	4g	4ee
=25	=25	=25	=25
2A	4a	4f#	4dd
.	4g	4e	4cc#
4AA	4a	4e	4cc#
=26	=26	=26	=26
4D	4g	4d	4dd
4r	4f#	2r	2r
8c#	4r	.	.
8d	.	.	.
=27	=27	=27	=27
4D	2.r	4r	4r
8d	.	4dd	4ff#
8c#	.	.	.
8B	.	4dd	4ff#
8A	.	.	.
=28	=28	=28	=28
4G	2.r	4ee	4gg
4G	.	4ee	4gg
8F#	.	4r	4r
8G	.	.	.
=29	=29	=29	=29
4AA	2.r	4r	4r
8A	.	4cc#	4ee
8G	.	.	.
8F#	.	4cc#	4ee
8E	.	.	.
=30	=30	=30	=30
4D	2.r	4dd	4ff#
4D	.	4dd	4ff#
8C#	.	4r	4r
8D	.	.	.
=31	=31	=31	=31
4DD	2.r	4r	4r
8D	.	4ff#	4ddd
8C#	.	.	.
8BB	.	4ff#	4ddd
8AA	.	.	.
=32	=32	=32	=32
8GG#	2b	2.ee	2ddd
8BB	.	.	.
8E	.	.	.
8G#	.	.	.
4A	4a	.	4ccc#
=33	=33	=33	=33
4D	4f#	4dd	4bb
4E	4e	4cc#	4aa
4E	4e	4b	4gg#
=34	=34	=34	=34
2AA	2A	2a	2aa
4r	4r	4r	8gg#
.	.	.	8aa
=35	=35	=35	=35
2.r	4r	2.r	4a
.	4r	.	8bb
.	.	.	8aa
.	8dd#	.	8gg
.	8ee	.	8ff#
=36	=36	=36	=36
2.r	4e	2.r	4gg
.	8ee	.	4gg
.	8dd	.	.
.	8cc#	.	8ff#
.	8b	.	8gg
=37	=37	=37	=37
2.r	4cc#	2.r	4a
.	4cc#	.	8aa
.	.	.	8gg
.	8cc#	.	8ff#
.	8dd	.	8ee
=38	=38	=38	=38
2.r	4d	2.r	4ff#
.	8dd	.	4ff#
.	8cc#	.	.
.	8b	.	8gg
.	8a	.	8ff#
=39	=39	=39	=39
2.r	8g	2.dd	8bb
.	8f#	.	8aa
.	8b	.	8gg
.	8a	.	8ff#
.	8g	.	8bb
.	8f#	.	8aa
=40	=40	=40	=40
2.r	8b	2.dd	8gg
.	8a	.	8ff#
.	8g	.	8bb
.	8f#	.	8aa
.	8b	.	8gg
.	8a	.	8ff#
=41	=41	=41	=41
2.r	8g	2.dd	8bb
.	8f#	.	8aa
.	8b	.	8gg
.	8a	.	8ff#
.	8g	.	8ee
.	8g#	.	8dd
=42	=42	=42	=42
2.r	4a	4a	2a
.	4A	2r	.
.	4r	.	8ccc#
.	.	.	8ddd
=43	=43	=43	=43
4r	4r	4r	4dd
4d	4d	4f#	8ddd
.	.	.	8ccc#
4d	4d	4f#	8bb
.	.	.	8aa
=44	=44	=44	=44
4e	4e	4g	4gg
4e	4e	4g	4gg
4r	4r	4r	8ff#
.	.	.	8gg
=45	=45	=45	=45
4r	4r	4r	4a
4c#	4c#	4e	8aa
.	.	.	8gg
4c#	4c#	4e	8ff#
.	.	.	8ee
=46	=46	=46	=46
4d	4d	4f#	4dd
4d	4d	4f#	4dd
8C#	8c#	8cc#	8cc#
8D	8d	8dd	8dd
=47	=47	=47	=47
4DD	4D	4d	4d
8CC#	8C#	8c#	8c#
8DD	8D	8d	8d
8EE	8E	8e	8e
8FF#	8F#	8f#	8f#
=48	=48	=48	=48
8GG	8G	8g	8g
8AA	8A	8a	8a
8BB	8B	8b	8b
8C#	8c#	8cc#	8cc#
8D	8d	8dd	8dd
8E	8e	8ee	8ee
=49	=49	=49	=49
4F#	4f#	4ff#	4ff#
4A	4a	4aa	4aa
4AA	4g	4e	4cc#
=50	=50	=50	=50
4D	4f#	4f#	4dd
2r	2r	2r	2r
==	==	==	==
*-	*-	*-	*-
!!!RWG1: This file contains only pitch and duration data.
!!!RWG2: Transposing instruments are not transposed.
!!!RWG3: Spines may have incompatible meters.
!!!RWG4: Durations of rests and tied notes may be interpreted.
!!!RWG: Key is interpreted using the Humdrum key tool.
!!!GTL: 6 Quators ("Jungfernquartette")
!!!AFT: stage1
!!!END: 1997/04/15
!!!KEY: 1167176672
!!!EMD: Converted from MuseData to Humdrum Dec 16, 2000, by Andreas Kornstaedt using muse2kern.
!!!EMD: Manual editing by Craig Sapp, Nov 2001
